X:1
T: Montgomerie's Hornpipe
C:
R:Reel
Q: 232
K:D
M:4/4
L:1/8
|:A,2|D2 D2 DE FD|A2 A2 AB cA|d2 df ed cB|A^G AB A=G FE|
D2 D2 DE FD|A2 A2 AB cA|Bd cB AG FE|D2 d2 D2:|
|:de|fe fg fe dc|dc de dc BA|Bc dc B2 ef|ga fg e2 de|
fe fg fe dc|dc de dc BA|Bc de fg ef|d2 d2 d2:|
